assets/img/templates/pieprogress/circle4.svg

<svg height="120" viewBox="0 0 105 120" width="105" xmlns="http://www.w3.org/2000/svg" xmlns:xlink="http://www.w3.org/1999/xlink"><defs><path id="a" d="m75.382096 37.7205245c0 20.8325027-16.8749236 37.720652-37.6909843 37.720652-20.8161881 0-37.6911117-16.8881493-37.6911117-37.720652s16.8749236-37.7205245 37.6911117-37.7205245c20.8160607 0 37.6909843 16.8880218 37.6909843 37.7205245"/><filter id="b" height="343.9%" width="344.1%" x="-122%" y="-112.7%"><feMorphology in="SourceAlpha" operator="dilate" radius="18.5" result="shadowSpreadOuter1"/><feOffset dx="0" dy="7" in="shadowSpreadOuter1" result="shadowOffsetOuter1"/><feGaussianBlur in="shadowOffsetOuter1" result="shadowBlurOuter1" stdDeviation="11"/><feColorMatrix in="shadowBlurOuter1" type="matrix" values="0 0 0 0 0.758803216   0 0 0 0 0.758803216   0 0 0 0 0.758803216  0 0 0 1 0"/></filter><linearGradient id="c" x1="0%" x2="64.072719%" y1="35.149119%" y2="58.616622%"><stop offset="0" stop-color="#fa8d70"/><stop offset="1" stop-color="#ff582c"/></linearGradient><mask id="d" fill="#fff"><use fill="#fff" fill-rule="evenodd" xlink:href="#a"/></mask></defs><g fill="none" fill-rule="evenodd"><path d="m0 0h105v120h-105z" fill="#fff"/><path d="m0 0h105v120h-105z" fill="#fff"/><g transform="translate(14 13)"><g transform="translate(.37837)"><use fill="#000" filter="url(#b)" xlink:href="#a"/><use fill="#f6f6f6" fill-rule="evenodd" xlink:href="#a"/><path d="m37.691048-5.50639818.1474171 40.75157278-39.97119226 62.0170467 188.56861916-83.7643503z" fill="url(#c)" mask="url(#d)"/></g><path d="m26.9870527 44.6971779c.7003119 0 1.3347825-.1900464 1.9034118-.5701392.5686293-.3800929 1.0085688-.9038086 1.3198185-1.5711472s.4668746-1.4043125.4668746-2.2109217c0-1.247633-.342674-2.2515424-1.0280219-3.0117281-.685348-.7601857-1.6026368-1.1402785-2.7518666-1.1402785-.7841099 0-1.5053712.175539-2.1637841.5266172-.6584129.3510781-1.1612009.8254688-1.5083641 1.423172.0778125-1.8975627.6224995-3.3715106 1.6340611-4.4218435s2.4331349-1.5754993 4.2647198-1.5754993v-.4700385c-2.0710078 0-3.6541915.620915-4.7495511 1.8627451-1.0953596 1.24183-1.6430394 2.9885163-1.6430394 5.2400586v1.5580905c.0119711.8530328.2005166 1.6132185.5656365 2.2805571s.8709007 1.1808992 1.5173424 1.5406817c.6464417.3597826 1.3706959.5396738 2.1727625.5396738zm0-.461334c-1.1133163 0-2.0201304-.368487-2.7204423-1.1054609s-1.0504678-1.7031641-1.0504678-2.8985706v-1.1141653c.1795671-.7021563.6180102-1.2868029 1.3153293-1.7539399s1.4649687-.7007056 2.3029487-.7007056c1.0414895 0 1.8615128.3322186 2.46007.9966557.5985571.6644371.8978357 1.5595413.8978357 2.6853125 0 1.0909535-.3022714 2.0121709-.9068141 2.7636522-.6045427.7514812-1.3706959 1.1272219-2.2984595 1.1272219zm10.172479.461334c1.1851432 0 2.09495-.3583318 2.7294206-1.0749954s.9517059-1.7626443.9517059-3.1379421c0-1.1838006-.3501559-2.1354835-1.0504678-2.8550485-.7003119-.7195651-1.6370538-1.0793477-2.8102259-1.0793477-.4908169 0-.9921085.0783398-1.5038748.2350193-.5117664.1566795-.9232745.3597825-1.2345242.6093091l.5297231-5.0833791h5.9346943v-.4613341h-6.3746338l-.6105283 6.040865.3681126.1392706c.3711055-.3481766.7900955-.6035062 1.2569701-.7659886.4668746-.1624825 1.0145544-.2437237 1.6430394-.2437237 1.0235327 0 1.8390669.3162605 2.4466024.9487814s.9113033 1.4768493.9113033 2.5329852c0 1.2244212-.2618688 2.1514415-.7856063 2.781061-.5237375.6296194-1.3243077.9444292-2.4017106.9444292-1.0115616 0-1.8046499-.2582311-2.3792648-.7746931-.5746148-.516462-.9098068-1.2708448-1.005576-2.2631483h-.4938096c.0897835 1.0967565.4788457 1.9555923 1.1671864 2.5765073.6883408.620915 1.5921621.9313725 2.711464.9313725zm8.0356299-7.1376214c.6943263 0 1.2704375-.2495266 1.7283338-.7485798.4578962-.4990532.6868443-1.1170667.6868443-1.8540407v-.6267179c0-.7717916-.2304445-1.4086647-.6913335-1.9106194s-1.0414895-.752932-1.7418013-.752932c-.6943264 0-1.2749268.2495266-1.7418014.7485798s-.7003119 1.1228697-.7003119 1.8714495v.6180135c0 .7833975.2349337 1.4217214.7048011 1.9149716.4698674.4932503 1.054957.7398754 1.7552689.7398754zm0-.4787429c-.5985572 0-1.0759065-.203103-1.432048-.6093091s-.5342123-.9110623-.5342123-1.5145685v-.6093091c0-.6673386.1825599-1.2012095.5476798-1.6016126.3651199-.4004032.8319945-.6006047 1.4006238-.6006047.5806004 0 1.0489714.2002015 1.4051129.6006047.3561415.4004031.5342123.9139637.5342123 1.5406817v.626718c0 .6441268-.1765744 1.1663918-.5297231 1.5667949-.3531488.4004032-.8170306.6006047-1.3916454.6006047zm.3052641 6.3019975 6.3836122-9.9056258-.4040261-.2698369-6.3836122 9.9056258zm6.4733957 1.3230713c.6883408 0 1.264452-.2480759 1.7283338-.7442276.4638818-.4961518.6958227-1.1185175.6958227-1.8670974v-.6180135c0-.7892004-.2319409-1.4318765-.6958227-1.9280282-.4638818-.4961518-1.0459786-.7442276-1.7462905-.7442276-.6943263 0-1.2734303.2480758-1.7373121.7442276-.4638818.4961517-.6958227 1.1185175-.6958227 1.8670973v.6354224c0 .7833974.2349336 1.4217213.704801 1.9149716.4698674.4932502 1.0519642.7398754 1.7462905.7398754zm0-.4787429c-.5925716 0-1.0669281-.2002016-1.4230696-.6006048-.3561415-.4004031-.5342123-.9110622-.5342123-1.5319773v-.6441268c0-.6615356.175078-1.1881528.5252339-1.5798515.350156-.3916988.8215197-.5875481 1.4140913-.5875481.5985572 0 1.0729137.1914971 1.4230697.5744914.3501559.3829944.5252339.9023579.5252339 1.5580906v.6354224c0 .6441268-.175078 1.1678425-.5252339 1.5711471-.350156.4033046-.8185269.604957-1.405113.604957z" fill="#000" fill-rule="nonzero"/></g><text fill="#383838" font-family="Barlow-Bold, Barlow" font-size="13" font-weight="bold"><tspan x="39.474" y="108">Title</tspan></text></g></svg>

<?xml version="1.0" encoding="UTF-8"?>
<svg width="105px" height="120px" viewBox="0 0 105 120" version="1.1" xmlns="http://www.w3.org/2000/svg" xmlns:xlink="http://www.w3.org/1999/xlink">
    <!-- Generator: Sketch 61.1 (89650) - https://sketch.com -->
    <title>circle4</title>
    <desc>Created with Sketch.</desc>
    <defs>
        <path d="M75.382096,37.7205245 C75.382096,58.5530272 58.5071724,75.4411765 37.6911117,75.4411765 C16.8749236,75.4411765 2.680209e-14,58.5530272 2.680209e-14,37.7205245 C2.680209e-14,16.8880218 16.8749236,0 37.6911117,0 C58.5071724,0 75.382096,16.8880218 75.382096,37.7205245" id="path-1"></path>
        <filter x="-122.0%" y="-112.7%" width="344.1%" height="343.9%" filterUnits="objectBoundingBox" id="filter-3">
            <feMorphology radius="18.5" operator="dilate" in="SourceAlpha" result="shadowSpreadOuter1"></feMorphology>
            <feOffset dx="0" dy="7" in="shadowSpreadOuter1" result="shadowOffsetOuter1"></feOffset>
            <feGaussianBlur stdDeviation="11" in="shadowOffsetOuter1" result="shadowBlurOuter1"></feGaussianBlur>
            <feColorMatrix values="0 0 0 0 0.758803216   0 0 0 0 0.758803216   0 0 0 0 0.758803216  0 0 0 1 0" type="matrix" in="shadowBlurOuter1"></feColorMatrix>
        </filter>
        <linearGradient x1="0%" y1="35.1491194%" x2="64.0727191%" y2="58.6166217%" id="linearGradient-4">
            <stop stop-color="#FA8D70" offset="0%"></stop>
            <stop stop-color="#FF582C" offset="100%"></stop>
        </linearGradient>
    </defs>
    <g id="circle4" stroke="none" stroke-width="1" fill="none" fill-rule="evenodd">
        <rect fill="#FFFFFF" x="0" y="0" width="105" height="120"></rect>
        <rect id="Rectangle" fill="#FFFFFF" x="0" y="0" width="105" height="120"></rect>
        <g id="Group-14" transform="translate(14.000000, 13.000000)">
            <g id="Path-2" transform="translate(0.378370, 0.000000)">
                <mask id="mask-2" fill="white">
                    <use xlink:href="#path-1"></use>
                </mask>
                <g id="Mask">
                    <use fill="black" fill-opacity="1" filter="url(#filter-3)" xlink:href="#path-1"></use>
                    <use fill="#F6F6F6" fill-rule="evenodd" xlink:href="#path-1"></use>
                </g>
                <polygon fill="url(#linearGradient-4)" mask="url(#mask-2)" points="37.691048 -5.50639818 37.8384651 35.2451746 -2.13272716 97.2622213 186.435892 13.497871"></polygon>
            </g>
            <path d="M26.9870527,44.6971779 C27.6873646,44.6971779 28.3218352,44.5071315 28.8904645,44.1270387 C29.4590938,43.7469458 29.8990333,43.2232301 30.210283,42.5558915 C30.5215327,41.8885529 30.6771576,41.151579 30.6771576,40.3449698 C30.6771576,39.0973368 30.3344836,38.0934274 29.6491357,37.3332417 C28.9637877,36.573056 28.0464989,36.1929632 26.8972691,36.1929632 C26.1131592,36.1929632 25.3918979,36.3685022 24.733485,36.7195804 C24.0750721,37.0706585 23.5722841,37.5450492 23.2251209,38.1427524 C23.3029334,36.2451897 23.8476204,34.7712418 24.859182,33.7209089 C25.8707436,32.670576 27.2923169,32.1454096 29.1239018,32.1454096 L29.1239018,32.1454096 L29.1239018,31.6753711 C27.052894,31.6753711 25.4697103,32.2962861 24.3743507,33.5381162 C23.2789911,34.7799462 22.7313113,36.5266325 22.7313113,38.7781748 L22.7313113,38.7781748 L22.7313113,40.3362653 C22.7432824,41.1892981 22.9318279,41.9494838 23.2969478,42.6168224 C23.6620677,43.284161 24.1678485,43.7977216 24.8142902,44.1575041 C25.4607319,44.5172867 26.1849861,44.6971779 26.9870527,44.6971779 Z M26.9870527,44.2358439 C25.8737364,44.2358439 24.9669223,43.8673569 24.2666104,43.130383 C23.5662985,42.3934091 23.2161426,41.4272189 23.2161426,40.2318124 L23.2161426,40.2318124 L23.2161426,39.1176471 C23.3957097,38.4154908 23.8341528,37.8308442 24.5314719,37.3637072 C25.228791,36.8965702 25.9964406,36.6630016 26.8344206,36.6630016 C27.8759101,36.6630016 28.6959334,36.9952202 29.2944906,37.6596573 C29.8930477,38.3240944 30.1923263,39.2191986 30.1923263,40.3449698 C30.1923263,41.4359233 29.8900549,42.3571407 29.2855122,43.108622 C28.6809695,43.8601032 27.9148163,44.2358439 26.9870527,44.2358439 Z M37.1595317,44.6971779 C38.3446749,44.6971779 39.2544817,44.3388461 39.8889523,43.6221825 C40.5234229,42.9055189 40.8406582,41.8595382 40.8406582,40.4842404 C40.8406582,39.3004398 40.4905023,38.3487569 39.7901904,37.6291919 C39.0898785,36.9096268 38.1531366,36.5498442 36.9799645,36.5498442 C36.4891476,36.5498442 35.987856,36.628184 35.4760897,36.7848635 C34.9643233,36.941543 34.5528152,37.144646 34.2415655,37.3941726 L34.2415655,37.3941726 L34.7712886,32.3107935 L40.7059829,32.3107935 L40.7059829,31.8494594 L34.3313491,31.8494594 L33.7208208,37.8903244 L34.0889334,38.029595 C34.4600389,37.6814184 34.8790289,37.4260888 35.3459035,37.2636064 C35.8127781,37.1011239 36.3604579,37.0198827 36.9889429,37.0198827 C38.0124756,37.0198827 38.8280098,37.3361432 39.4355453,37.9686641 C40.0430808,38.601185 40.3468486,39.4455134 40.3468486,40.5016493 C40.3468486,41.7260705 40.0849798,42.6530908 39.5612423,43.2827103 C39.0375048,43.9123297 38.2369346,44.2271395 37.1595317,44.2271395 C36.1479701,44.2271395 35.3548818,43.9689084 34.7802669,43.4524464 C34.2056521,42.9359844 33.8704601,42.1816016 33.7746909,41.1892981 L33.7746909,41.1892981 L33.2808813,41.1892981 C33.3706648,42.2860546 33.759727,43.1448904 34.4480677,43.7658054 C35.1364085,44.3867204 36.0402298,44.6971779 37.1595317,44.6971779 Z M45.1951616,37.5595565 C45.8894879,37.5595565 46.4655991,37.3100299 46.9234954,36.8109767 C47.3813916,36.3119235 47.6103397,35.69391 47.6103397,34.956936 L47.6103397,34.956936 L47.6103397,34.3302181 C47.6103397,33.5584265 47.3798952,32.9215534 46.9190062,32.4195987 C46.4581172,31.917644 45.8775167,31.6666667 45.1772049,31.6666667 C44.4828785,31.6666667 43.9022781,31.9161933 43.4354035,32.4152465 C42.9685289,32.9142997 42.7350916,33.5381162 42.7350916,34.286696 L42.7350916,34.286696 L42.7350916,34.9047095 C42.7350916,35.688107 42.9700253,36.3264309 43.4398927,36.8196811 C43.9097601,37.3129314 44.4948497,37.5595565 45.1951616,37.5595565 Z M45.1951616,37.0808136 C44.5966044,37.0808136 44.1192551,36.8777106 43.7631136,36.4715045 C43.4069721,36.0652984 43.2289013,35.5604422 43.2289013,34.956936 L43.2289013,34.956936 L43.2289013,34.3476269 C43.2289013,33.6802883 43.4114612,33.1464174 43.7765811,32.7460143 C44.141701,32.3456111 44.6085756,32.1454096 45.1772049,32.1454096 C45.7578053,32.1454096 46.2261763,32.3456111 46.5823178,32.7460143 C46.9384593,33.1464174 47.1165301,33.659978 47.1165301,34.286696 L47.1165301,34.286696 L47.1165301,34.913414 C47.1165301,35.5575408 46.9399557,36.0798058 46.586807,36.4802089 C46.2336582,36.8806121 45.7697764,37.0808136 45.1951616,37.0808136 Z M45.5004257,43.3828111 L51.8840379,33.4771853 L51.4800118,33.2073484 L45.0963996,43.1129742 L45.5004257,43.3828111 Z M51.9738214,44.7058824 C52.6621622,44.7058824 53.2382734,44.4578065 53.7021552,43.9616548 C54.166037,43.465503 54.3979779,42.8431373 54.3979779,42.0945574 L54.3979779,42.0945574 L54.3979779,41.4765439 C54.3979779,40.6873435 54.166037,40.0446674 53.7021552,39.5485157 C53.2382734,39.0523639 52.6561766,38.8042881 51.9558647,38.8042881 C51.2615384,38.8042881 50.6824344,39.0523639 50.2185526,39.5485157 C49.7546708,40.0446674 49.5227299,40.6670332 49.5227299,41.415613 L49.5227299,41.415613 L49.5227299,42.0510354 C49.5227299,42.8344328 49.7576635,43.4727567 50.2275309,43.966007 C50.6973983,44.4592572 51.2794951,44.7058824 51.9738214,44.7058824 Z M51.9738214,44.2271395 C51.3812498,44.2271395 50.9068933,44.0269379 50.5507518,43.6265347 C50.1946103,43.2261316 50.0165395,42.7154725 50.0165395,42.0945574 L50.0165395,42.0945574 L50.0165395,41.4504306 C50.0165395,40.788895 50.1916175,40.2622778 50.5417734,39.8705791 C50.8919294,39.4788803 51.3632931,39.283031 51.9558647,39.283031 C52.5544219,39.283031 53.0287784,39.4745281 53.3789344,39.8575224 C53.7290903,40.2405168 53.9041683,40.7598803 53.9041683,41.415613 L53.9041683,41.415613 L53.9041683,42.0510354 C53.9041683,42.6951622 53.7290903,43.2188779 53.3789344,43.6221825 C53.0287784,44.0254871 52.5604075,44.2271395 51.9738214,44.2271395 Z" id="65%" fill="#000000" fill-rule="nonzero"></path>
        </g>
        <text id="Title" font-family="Barlow-Bold, Barlow" font-size="13" font-weight="bold" fill="#383838">
            <tspan x="39.474" y="108">Title</tspan>
        </text>
    </g>
</svg>
